icon-themes/breeze_svg/cmd/32/helplinesuse.svg

<svg viewBox="0 0 32 32" xmlns="http://www.w3.org/2000/svg"><path d="m6 5v1h1v-1zm16 0c-1.656862 0-3 1.3431371-3 3v3h-2v6h10v-6h-2v-3c0-1.6568629-1.343138-3-3-3zm0 1c1.104569 0 2 .8954305 2 2v3h-4v-3c0-1.1045695.895431-2 2-2zm-16 1v1h1v-1zm0 2v1h1v-1zm0 2v1h1v-1zm12 1h8v4h-8zm-12 1v1h1v-1zm0 2v1h1v-1zm0 2v1h1v-1zm0 2v1h1v-1zm0 2v1h1v-1zm0 2v1h1v-1zm-2 2v1h1v-1zm2 0v1h1v-1zm2 0v1h1v-1zm2 0v1h1v-1zm2 0v1h1v-1zm2 0v1h1v-1zm2 0v1h1v-1zm2 0v1h1v-1zm2 0v1h1v-1zm2 0v1h1v-1zm2 0v1h1v-1zm2 0v1h1v-1zm-20 2v1h1v-1z" fill="#4d4d4d"/></svg>

<svg xmlns="http://www.w3.org/2000/svg" viewBox="0 0 32 32">
 <path 
     style="fill:#4d4d4d" 
     d="M 6 5 L 6 6 L 7 6 L 7 5 L 6 5 z M 22 5 C 20.343138 5 19 6.3431371 19 8 L 19 11 L 17 11 L 17 17 L 27 17 L 27 11 L 25 11 L 25 8 C 25 6.3431371 23.656862 5 22 5 z M 22 6 C 23.104569 6 24 6.8954305 24 8 L 24 11 L 20 11 L 20 8 C 20 6.8954305 20.895431 6 22 6 z M 6 7 L 6 8 L 7 8 L 7 7 L 6 7 z M 6 9 L 6 10 L 7 10 L 7 9 L 6 9 z M 6 11 L 6 12 L 7 12 L 7 11 L 6 11 z M 18 12 L 26 12 L 26 16 L 18 16 L 18 12 z M 6 13 L 6 14 L 7 14 L 7 13 L 6 13 z M 6 15 L 6 16 L 7 16 L 7 15 L 6 15 z M 6 17 L 6 18 L 7 18 L 7 17 L 6 17 z M 6 19 L 6 20 L 7 20 L 7 19 L 6 19 z M 6 21 L 6 22 L 7 22 L 7 21 L 6 21 z M 6 23 L 6 24 L 7 24 L 7 23 L 6 23 z M 4 25 L 4 26 L 5 26 L 5 25 L 4 25 z M 6 25 L 6 26 L 7 26 L 7 25 L 6 25 z M 8 25 L 8 26 L 9 26 L 9 25 L 8 25 z M 10 25 L 10 26 L 11 26 L 11 25 L 10 25 z M 12 25 L 12 26 L 13 26 L 13 25 L 12 25 z M 14 25 L 14 26 L 15 26 L 15 25 L 14 25 z M 16 25 L 16 26 L 17 26 L 17 25 L 16 25 z M 18 25 L 18 26 L 19 26 L 19 25 L 18 25 z M 20 25 L 20 26 L 21 26 L 21 25 L 20 25 z M 22 25 L 22 26 L 23 26 L 23 25 L 22 25 z M 24 25 L 24 26 L 25 26 L 25 25 L 24 25 z M 26 25 L 26 26 L 27 26 L 27 25 L 26 25 z M 6 27 L 6 28 L 7 28 L 7 27 L 6 27 z "
     />
</svg>
